src/images/bg/bg-down-mobile.svg

<svg width="320" height="1215" viewBox="0 0 320 1215" fill="none" xmlns="http://www.w3.org/2000/svg">
<path d="M14.8505 95.5031C18.272 114.853 5.34647 113.288 -1.54398 110.087V347.691C-1.54397 394.125 -4.81995 1200.51 -1.5441 1213.59C0.444023 1221.52 17.7016 1180.65 14.8504 1171.76C11.9992 1162.87 6.29676 1130.35 18.7708 1126.8C31.2449 1123.24 33.0269 1115.06 39.4421 1104.74C45.8574 1094.43 62.2519 1074.15 102.169 1089.81C142.086 1105.46 168.46 1091.23 187.349 1077C224.771 1048.81 288.242 1077.14 305.881 1101.29C315.137 1113.96 289.886 1176.59 305.881 1182.64C313.872 1185.65 321 1241.13 321 1179.62L321 91.5903C320.762 94.1988 319.004 98.6331 313.872 95.5031C298.761 87.8201 304.962 64.3203 309.952 53.5309C312.684 43.2157 313.587 19.0284 295.339 4.80053C273.878 -11.9324 210.727 20.4513 174.091 20.4512C134.066 20.4511 114.643 11.2032 90.7642 2.66648C66.8853 -5.87022 47.9959 8.71322 40.5115 20.4512C33.027 32.1891 32.6707 36.8132 21.2658 42.1486C-1.18757 50.3296 10.5737 71.3157 14.8505 95.5031Z" fill="#FEF3E4"/>
</svg>

<svg xmlns="http://www.w3.org/2000/svg" width="320" height="1215" fill="none"><path d="M14.85 95.503c3.422 19.35-9.504 17.785-16.394 14.584v237.604c0 46.434-3.276 852.819 0 865.899 1.988 7.93 19.246-32.94 16.394-41.83-2.85-8.89-8.553-41.41 3.92-44.96 12.475-3.56 14.257-11.74 20.672-22.06 6.415-10.31 22.81-30.59 62.727-14.93 39.917 15.65 66.291 1.42 85.18-12.81 37.422-28.19 100.893.14 118.532 24.29 9.256 12.67-15.995 75.3 0 81.35 7.991 3.01 15.119 58.49 15.119-3.02V91.59c-.238 2.609-1.996 7.043-7.128 3.913-15.111-7.683-8.91-31.183-3.92-41.972 2.732-10.315 3.635-34.503-14.613-48.73-21.461-16.733-84.612 15.65-121.248 15.65-40.025 0-59.448-9.248-83.327-17.785C66.885-5.87 47.996 8.713 40.512 20.451 33.026 32.19 32.67 36.813 21.265 42.15c-22.454 8.18-10.692 29.167-6.415 53.354z" fill="#FEF3E4"/></svg>
